X:1
T:Saint Anne's Reel
R:Reel
M:C
%%printtempo 0
Q:180
K:D
(de)|\
"D"f2 (fg) fedB|ABAG FGAd|"G"B2 G2G2 (FG)|"D"ABAG FGAd|
"D"f2 (fg) fedB|ABAG FGAd|"G"BGBd "A"cdec|"D"dBAF D2:|
|:(ag)|\
"D"fafd cdfg|"G"a2g2g2 (gf)|"A" edcB Aceg|"D"b2a2a2 (ag)|
"D"fafd cdfg|"G"a2g2g2 (gf)|"A" edcB Aceg|"D"f2d2d2:|
